X: 7
T: The Green Fields Of Rossbeigh
R: reel
M: 4/4
L: 1/8
K: Edor
|: BE ~E2 BAFB | ABde fded | BE ~E2 BAFA | BFAF E2dc |
| B2 Bd BAFB | ABde fded | B2AF EFGA | BFAF E2 FA :|
|: (3B^cd ef g2 fe | dB~B2 dBAd | (3B^cd ef g2 fe | dBAF E2 ef |
| g2 ga gfeg | f2 fg fedB | ABde fded | B2AF E4 :|


Tune 322	Setting 13091

